X:1
T:French Suite II Gigue
T:BWV 813
T:J. S. Bach
%%score { 1 | 2 }
L:1/8
M:3/8
K:Eb
V:1 treble nm="Harp"
V:2 bass 
V:1
 c/G | c>de | d>ec | =B>cd | G>gc | f>ga | d>gf | e>dc | g3- | g>gc | f>ga | d>cB | f3- | f>fB | %14
 e>fg | c>de | A3- | A>AE | F>GA | D>CB, | B3- | B>eB | G>AF | E2 G | c3- | c>=Ac | e3- | e>ce | %28
 ^f>=ad | g>=ab | d>g^f | g3- | g>cG | c>de | d>ec | =B>cd | G>gc | f>ga | d>gf | e>dc | g3- | %41
 g>gc | f>ga | d>cB | f3- | f>fB | e>fg | c>de | A3- | A>AE | F>GA | D>CB, | B3- | B>eB | G>AF | %55
 E2 G | c3- | c>=Ac | e3- | e>ce | ^f>=ad | g>=ab | d>g^f | g3- | g>Gd | =B>=AG | f3- | f>gd | %68
 e>gb | _d>cg | =e>dc | f3- | f>cf | d>cB | e3- | e>c=e | f>dg | e>dc | f3- | f>dg | a>fb | g>fe | %82
 a3- | a>f=b | c'>gc | f>ga | gf/e/d/c/ | =B3- | B>dg | =e>dc | b3- | _b>c'g | a>cf | d>cB | a3- | %95
 a>bf | g>ec | =A3- | A>fd | =B3- | B>ge | ca/g/f/e/ | _d/c/d/e/f/^c/ | =B/=A/B/c/d/B/ | A>Gf | %105
 e>dc | ce/d/c/=B/ | c3- | c/B/A/G/A/F/ | d3- | d/e/d/c/d/=B/ | f/g/f/e/f/d/ | a>gf | %113
 e/d/e/g/c'/g/ | e>fd | c3- | c>Gd | =B>=AG | f3- | f>gd | e>gb | _d>cg | =e>dc | f3- | f>cf | %125
 d>cB | e3- | e>c=e | f>dg | e>dc | f3- | f>dg | a>fb | g>fe | a3- | a>f=b | c'>gc | f>ga | %138
 gf/e/d/c/ | =B3- | B>dg | =e>dc | b3- | _b>c'g | a>cf | d>cB | a3- | a>bf | g>ec | =A3- | A>fd | %151
 =B3- | B>ge | ca/g/f/e/ | _d/c/d/e/f/^c/ | =B/=A/B/c/d/B/ | A>Gf | e>dc | ce/d/c/=B/ | c3- | %160
 c/B/A/G/A/F/ | d3- | d/e/d/c/d/=B/ | f/g/f/e/f/d/ | a>gf | e/d/e/g/c'/g/ | e>fd | !fermata!c3- | %168
 c3/2 z3/2 |] %169
V:2
 z/ z | z z/ G,/C, | F,>G,A, | G,>A,F, | E,>F,G, | A,>G,F, | G,2 G,, | C,2 C | =B,>=A,G, | C2 B, | %10
 _A,>CF, | B,>CD | =A,>G,F, | B,2 A, | G,>B,E, | A,>B,C | F,>G,A, | D,3- | D,>E,F, | B,,>D,F, | %20
 A,>G,F, | G,>E,G, | B,2 B,, | E,3- | E,>G,C, | ^F,>G,=A, | C,>E,G,, | =A,,>B,,C, | D,,2 C, | %29
 B,,>=A,,G,, | D,2 D,, | G,,>=B,,D, | G,3/2 z/ z | z z/ G,/C, | F,>G,A, | G,>A,F, | E,>F,G, | %37
 A,>G,F, | G,2 G,, | C,2 C | =B,>=A,G, | C2 B, | _A,>CF, | B,>CD | =A,>G,F, | B,2 A, | G,>B,E, | %47
 A,>B,C | F,>G,A, | D,3- | D,>E,F, | B,,>D,F, | A,>G,F, | G,>E,G, | B,2 B,, | E,3- | E,>G,C, | %57
 ^F,>G,=A, | C,>E,G,, | =A,,>B,,C, | D,,2 C, | B,,>=A,,G,, | D,2 D,, | G,,>=B,,D, | G,3/2 z/ z | %65
 z/ z G,/D | =B,>=A,G, | C3- | C>C,G, | =E,>D,C, | B,3- | B,>CG, | A,F, z | z z/ F,/B, | G,>F,E, | %75
 A,3- | A,>F,=B, | C>G,C | A,>G,F, | C3- | C>A,D | E>B,E | C>B,A, | E3- | E>C=E | A,>CD, | E,2 F, | %87
 G,>=B,,D, | G,,2 z | z/ z C,/G, | =E,>D,C, | F,3- | F,>G,A, | B,>B,,F, | D,>C,B,, | E,3- | %96
 E,>G,C | E>C=A, | F,>=A,D | F>D=B, | G,3- | G,C/B,/A,/G,/ | F,>CA, | F,>CA, | F,>=B,G, | C>G,A, | %106
 F,G,G,, | A,,>C,D,/=E,/ | F,3- | F,>D,F, | A,3- | A,>F,A, | =B,>DG, | C>C,E, | G,2 G,, | %115
 C,>E,,G,, | C,,3/2 z/ z | z/ z G,/D | =B,>=A,G, | C3- | C>C,G, | =E,>D,C, | B,3- | B,>CG, | %124
 A,F, z | z z/ F,/B, | G,>F,E, | A,3- | A,>F,=B, | C>G,C | A,>G,F, | C3- | C>A,D | E>B,E | C>B,A, | %135
 E3- | E>C=E | A,>CD, | E,2 F, | G,>=B,,D, | G,,2 z | z/ z C,/G, | =E,>D,C, | F,3- | F,>G,A, | %145
 B,>B,,F, | D,>C,B,, | E,3- | E,>G,C | E>C=A, | F,>=A,D | F>D=B, | G,3- | G,C/B,/A,/G,/ | F,>CA, | %155
 F,>CA, | F,>=B,G, | C>G,A, | F,G,G,, | A,,>C,D,/=E,/ | F,3- | F,>D,F, | A,3- | A,>F,A, | =B,>DG, | %165
 C>C,E, | G,2 G,, | C,>E,,G,, | !fermata!C,,3/2 z3/2 |] %169

